X: 31424
T: Paddy Ryan's Dream
R: reel
M: 4/4
K: Aminor
cB|:AE ~E2 cABG|EGDC B,CDB,|A,3B, CDEA|cAB^G ABcB|
AE ~E2 cABG|EGDC B,CDB,|A,3B, CDEA|cAB^G A2cB:|
|:Aaa^g aecA|Ggg^f gdBG|Aaa^g aefd|edcB (3cec BG|
Aaa^g aecA|Ggg^f gdBG|(3ABc Bd cedf|edcB ABcB:|

